.svelte-kit/output/client/library/social-小红书.svg

<svg width="48" height="48" viewBox="0 0 48 48" fill="none" xmlns="http://www.w3.org/2000/svg">
<path fill-rule="evenodd" clip-rule="evenodd" d="M14 8H9V15H14V21H7V28H14V43H21V28H33.0312C33.9561 28 34 28.0733 34 29V35C34 35.9267 33.9561 36 33.0312 36H26C26 39.866 29.1653 43 33.0312 43C38 43 41 41 41 36V29C41 24 37 21 32 21V16C32 10.7488 28.2409 8 23 8H22C21.4477 8 21 7.55228 21 7V5H14V8ZM24 21C24.5523 21 25 20.5523 25 20V16C25 15.0733 24.6711 15 24 15H21V20C21 20.5523 21.4477 21 22 21H24Z" fill="#FF5959"/>
<path d="M41 10.5C41 12.433 39.433 14 37.5 14C36.5207 14 34 14 34 14C34 14 34 11.4537 34 10.5C34 8.567 35.567 7 37.5 7C39.433 7 41 8.567 41 10.5Z" fill="#FF5959"/>
</svg>

<svg width="48" height="48" fill="none" xmlns="http://www.w3.org/2000/svg"><path fill-rule="evenodd" clip-rule="evenodd" d="M14 8H9v7h5v6H7v7h7v15h7V28h12.031c.925 0 .969.073.969 1v6c0 .927-.044 1-.969 1H26c0 3.866 3.165 7 7.031 7C38 43 41 41 41 36v-7c0-5-4-8-9-8v-5c0-5.251-3.76-8-9-8h-1a1 1 0 0 1-1-1V5h-7v3Zm10 13a1 1 0 0 0 1-1v-4c0-.927-.329-1-1-1h-3v5a1 1 0 0 0 1 1h2Z" fill="#FF5959"/><path d="M41 10.5a3.5 3.5 0 0 1-3.5 3.5H34v-3.5a3.5 3.5 0 1 1 7 0Z" fill="#FF5959"/></svg>
